X:1
T:Title
%%score { 1 | 2 }
L:1/8
M:3/4
K:Eb
V:1 treble nm="Grand Piano"
V:2 bass 
V:1
 z2 z2[Q:1/4=128] G2 | G2 _G2 =G2 | c2 B2 G2 | [DF]2 [CE]2 [DF]2 | E4 G2 | A2 B2 c2 | B2 G2 E2 | %7
 E2 D2 E2 | [DF]4 [DF]2 | [DA]2 [EA]2 [FA]2 | [FA]2 [EG]2 [EG]2 | [G_d]2 [Fd]2 d2 | c4 c2 | %13
 e2 d2 c2 | B2 G2 E2 | G2 [B,DG]3 [A,DF] |[M:2/4] [G,E]4 |[M:1/4] [EGB]2 | %18
[M:3/4] [DGB]2 [CAc]2 [Ad]2 | [Ge]2 [GB]2 [GB]2 | [AB]2 [Ac]2 d2 | [Ge]2 [GB]2 [GB]2 | %22
 [EGe]2 [EGe]2 [EGe]2 | [=Ae]2 [Ad]2 [Ac]2 | d2 B2 c2 | B4 [DA]2 | G2 G2 G2 | B2 A2 A2 | %28
 =A2 A2 A2 | c2 B2 B2 | e2 d2 e2 | d2 c2 A2 | G2 [DG]3 [DF] |[M:2/4] E4 |] %34
V:2
 z2 z2 [E,B,E]2 | [E,B,E]2 [E,=A,E]2 [E,B,E]2 | [E,A,E]2 [E,G,E]2 [E,B,E]2 | %3
 [B,,A,]2 [B,,A,]2 [B,,A,]2 | [E,G,]4 [E,_DE]2 | [A,CE]2 [A,B,E]2 [A,E]2 | %6
 [E,G,E]2 [E,B,E]2 [E,G,B,]2 | [F,=A,C]2 [F,A,C]2 [F,A,C]2 | [B,,B,]4 [B,,B,]2 | %9
 [B,,B,]2 [C,B,]2 [D,B,]2 | [E,B,]2 [E,B,]2 [E,B,]2 | [E,B,]2 [E,A,]2 [E,G,E]2 | [A,E]4 [A,E]2 | %13
 [A,CE]2 [A,B,E]2 [A,E]2 | [E,G,E]2 [E,B,E]2 [F,=A,C]2 | [B,E]2 B,,3 B,, |[M:2/4] E,4 | %17
[M:1/4] E,2 |[M:3/4] F,2 F,2 B,2 | [E,B,]2 [E,E]2 [E,E]2 | [F,D]2 [F,C]2 [B,A]2 | %21
 [E,B,]2 [E,E]2 [E,E]2 | C,2 C,2 C,2 | [F,F]2 [F,F]2 [F,F]2 | [B,FB]2 [B,DF]2 [F,EF]2 | %25
 [B,DF]4[K:bass] [B,,B,]2 | [E,B,E]2 [E,B,E]2 [E,B,E]2 | [G,_DE]2 [A,CE]2 [A,CE]2 | %28
 [F,CE]2 [F,CE]2 [F,CE]2 | [=A,EF]2 [B,DF]2 [_A,DF]2 | [G,B,E]2 [G,B,E]2[K:bass] [G,B,E]2 | %31
 [A,E]2 [A,E]2 [F,CE]2 | [B,E]2 [B,,B,]3 [B,,A,] |[M:2/4] [E,G,]4 |] %34

